24x24/emblems/Nextcloud_error.svg

<svg height="24" width="24" xmlns="http://www.w3.org/2000/svg"><circle cx="19" cy="19" fill="#f44336" r="5"/><path d="m16.96 16 2.04 2.04 2.04-2.04.96.96-2.04 2.04 2.04 2.04-.96.96-2.04-2.04-2.04 2.04-.96-.96 2.04-2.04-2.04-2.04z" fill="#f4f4f7"/></svg>

<svg xmlns="http://www.w3.org/2000/svg" width="24" height="24"><circle style="fill:#f44336" cx="19" cy="19" r="5"/><path style="fill:#f4f4f7" d="M16.96 16 19 18.04 21.04 16l.96.96L19.96 19 22 21.04l-.96.96L19 19.96 16.96 22l-.96-.96L18.04 19 16 16.96z"/></svg>
